X:1
T:The False Young Man
M:4/4
L:1/8
K:F
 G2| A2 G2 c2 =B2| A2 GE D2 GG| AA AA d2 =B2| A6 D2| G2 A2 G2G-E| DD DC A,2 DD|\
E-D G2G-ED-E| D6||
